!!!OTL: Ostergesang
!!!ARE: Europa, Mitteleuropa, Deutschland
!!!SCT: A0554A
!!!YEM: Copyright 1995, estate of Helmut Schaffrath.
**kern
*ICvox
*Ivox
*M3/2
*k[b-]
*F:
{2ff
=1
1ff
2ff
=2
1ee
2ee
=3
1ff
2dd
=4
1cc}
{2cc
=5
2dd
2ee
2ff
=6
1ee
2dd
=7
1cc
2b-
=8
1a}
{2g
=9
1a
2a
=10
1cc
2cc
=11
1a
2g
=12
1f}
{2f
=13
1a
2b-
=14
2a
1g
=15
1f}
==
!!!AGN: Romanze, Ballade, Lied, religioeses Lied
!! Triller 1555
!!!ONB: ESAC (Essen Associative Code) Database: ALTDEU
!!!AMT: simple triple
!!!AIN: vox
!!!EED: Helmut Schaffrath
!!!EEV: 1.0
*-
